svg/content_save_minus_outline.svg

<svg xmlns="http://www.w3.org/2000/svg" viewBox="0 0 24 24"><path d="M5 3a2 2 0 0 0-2 2v14a2 2 0 0 0 2 2h7.81c-.36-.62-.61-1.3-.73-2H5V5h11.17L19 7.83v4.25c.7.12 1.38.37 2 .73V7l-4-4zm1 3v4h9V6zm6 6c-1.66 0-3 1.34-3 3s1.34 3 3 3c0-1.89.89-3.66 2.39-4.79C13.85 12.5 13 12 12 12m2 5v2h8v-2z"/></svg>

<svg xmlns="http://www.w3.org/2000/svg" id="mdi-content-save-minus-outline" viewBox="0 0 24 24"><path d="M5 3C3.89 3 3 3.9 3 5V19C3 20.1 3.89 21 5 21H12.81C12.45 20.38 12.2 19.7 12.08 19H5V5H16.17L19 7.83V12.08C19.7 12.2 20.38 12.45 21 12.81V7L17 3H5M6 6V10H15V6H6M12 12C10.34 12 9 13.34 9 15S10.34 18 12 18C12 16.11 12.89 14.34 14.39 13.21C13.85 12.5 13 12 12 12M14 17V19H22V17H14Z" /></svg>
